X: 1
T: String Quartet in E\b Major opus 71 no 3 mvt 3
C: Franz Joseph Haydn
%%abc-version 2.0
%%abcx-abcm2ps-target-version 5.9.1 (29 Sep 2008)
%%abc-creator hum2abc beta
%%abcx-conversion-date 2021/02/14 14:38:21
%%abc-copyright Copyright (c) 1994, 2000 Center for Computer Assisted Research in the Humanities
%%abc-edited-by Frances Bennion
%%abcx-initial-encoding-date 1997/04/15
%%gracespace 0 6 6
%%humdrum-veritas 3079329739
%%humdrum-veritas-data 3677814208
%%linebreak <none>
%%barnumbers 0
L: 1/8
M: 3/4
N: Derived from op71n3-03.krn
Q: "Menuetto"
%%staves [1 2 3 4]
V: 1
V: 2
V: 3 clef=alto
V: 4 clef=bass
K: Eb
[V:1]z4 B=A [I:setbarnb1]|
[V:2]z4 z2 |
[V:3]z4 z2 |
[V:4]z4 z2 |
[V:1]cB AG FE |
[V:2]z6 |
[V:3]z6 |
[V:4]z6 |
[V:1]D2 D2 BD |
[V:2]A,2 A,2 z2 |
[V:3]F,2 F,2 z2 |
[V:4]B,,2 B,,2 z2 |
[V:1]E2 E2 e=A |
[V:2]G,2 G,2 =A,E |
[V:3]E,2 E,2 C2 |
[V:4]C,2 C,2 F,,2 |
[V:1]B2 B2 z2 |
[V:2]D2 D2 z2 |
[V:3]B,2 B,2 B,=A, |
[V:4]B,,2 B,,2 z2 |
[V:1]z2 d2 e2 |
[V:2]z2 F2 G2 |
[V:3]CB, A,G, F,E, |
[V:4]z6 |
[V:1]f2 f2 z2 |
[V:2]A2 A2 z2 |
[V:3]D,2 D,2 z2 |
[V:4]z4 B,=A, |
[V:1]z2 f2 g2 |
[V:2]z2 d2 e2 |
[V:3]z2 B2 B2 |
[V:4]CB, A,G, F,E, |
[V:1]a2 a2 fd |
[V:2]f2 f2 z2 |
[V:3]=B6 |
[V:4]D,6 |
[V:1]g2 g2 ec |
[V:2]e2 e2 z2 |
[V:3]c6 |
[V:4]E,6 |
[V:1]b2 b2 g=e |
[V:2]_d6 |
[V:3]G4 B2 |
[V:4]=E,6 |
[V:1]f2 dB c=A |
[V:2]d2 FD EC |
[V:3]B2 z2 =A,E |
[V:4]F,4 F,,2 |
[V:1]B2 z2 B=A |
[V:2]D2 z2 DC |
[V:3]D2 z4 |
[V:4]B,,2 B,2 z2 |
[V:1]cB dc ed |
[V:2]ED FE GF |
[V:3]z6 |
[V:4]z6 |
[V:1]f2 f2 dB |
[V:2]A2 A2 A2 |
[V:3]D2 D2 F2 |
[V:4]B,=A, CB, z2 |
[V:1]e2 e2 c=A |
[V:2]G2 G2 _G2 |
[V:3]E2 E2 E2 |
[V:4]B,=A, CB, z2 |
[V:1]B2 B2 B3/B/ |
[V:2]F2 F2 _GF |
[V:3]D2 D2 ED |
[V:4]B,=A, CB, z2 |
[V:1]B4 cd |
[V:2]AG FE DC |
[V:3]FE DC B,A, |
[V:4]z6 |
[V:1]e2 e2 e3/e/ |
[V:2]B,2 B,2 E3/E/ |
[V:3]G,2 G,2 CB, |
[V:4]z4 A,G, |
[V:1]e4 fg |
[V:2]E4 FG |
[V:3]_DC B,A, G,F, |
[V:4]B,A, G,F, E,_D, |
[V:1]a2 a2 cB |
[V:2]A2 A2 AG |
[V:3]E,2 E,2 z2 |
[V:4]C,2 C,2 z2 |
[V:1]_dc BA cB |
[V:2]BA GF AG |
[V:3]z6 |
[V:4]=E,2 F,2 D,2 |
[V:1]AG g^f gd |
[V:2]FE z4 |
[V:3]z2 ED E=B, |
[V:4]E,2 z4 |
[V:1]e=B cG Ac |
[V:2]z6 |
[V:3]CG, A,=E, F,A, |
[V:4]z6 |
[V:1]E4 F2 |
[V:2]G,4 A,2 |
[V:3]B,4 D,2 |
[V:4]B,,6 |
[V:1]E2 z2 B=A |
[V:2]G,2 z4 |
[V:3]E,2 z4 |
[V:4]E,,D,, F,,E,, G,,^F,, |
[V:1]cB AG FE |
[V:2]z2 [E2B,2] [E2B,2] |
[V:3]z2 E,2 E,2 |
[V:4]G,,6 |
[V:1]D2 D2 B=A |
[V:2]z2 [B,2D2] [B,2D2] |
[V:3]z2 F,2 F,2 |
[V:4]A,,6 |
[V:1]cB AG FE |
[V:2]z2 [E2B,2] [B,2E2] |
[V:3]z2 E,2 E,2 |
[V:4]G,,6 |
[V:1]D2 D2 B=A |
[V:2]z2 [B,2D2] [D2B,2] |
[V:3]z2 F,2 F,2 |
[V:4]A,,6 |
[V:1]cB AG FE |
[V:2]z2 [E2B,2] [B,2E2] |
[V:3]z2 E,2 E,2 |
[V:4]G,,6- |
[V:1]_DC DB GD |
[V:2]B,6 |
[V:3]E,6 |
[V:4]G,,6 |
[V:1]C=E Fc AF |
[V:2]C6 |
[V:3]E,4 F,2 |
[V:4]A,,6 |
[V:1]E4 F2 |
[V:2]B,4 A,2 |
[V:3]G,4 D,2 |
[V:4]B,,2 B,,2 B,,2 |
[V:1]E2 z4 |
[V:2]G,2 z2 B=A |
[V:3]E,2 z4 |
[V:4]E,D, F,E, G,^F, |
[V:1]z4 de |
[V:2]cB AG FE |
[V:3]z2 B,2 E2 |
[V:4]G,6 |
[V:1]gf ed cB |
[V:2]D2 z2 =AB |
[V:3]B,2 F2 D2 |
[V:4]A,6 |
[V:1]e2 z2 de |
[V:2]cB AG FE |
[V:3]z2 B,2 E2 |
[V:4]G,6 |
[V:1]=ef ga fd |
[V:2]D2 z2 =AB |
[V:3]B,2 F2 D2 |
[V:4]A,6 |
[V:1]e2 z2 de |
[V:2]cB AG FE |
[V:3]z2 B,2 E2 |
[V:4]G,6 |
[V:1]fe fg ab |
[V:2]_D6 |
[V:3]B,6 |
[V:4]G,,6 |
[V:1]c'=b c'g af |
[V:2]CD E=E FA |
[V:3]A,2 z4 |
[V:4]A,,6 |
[V:1]e4 f2 |
[V:2]G4 D2 |
[V:3]z2 B,2 A,2 |
[V:4]B,,6 |
[V:1]e2 z2 B=A |
[V:2]E2 z4 |
[V:3]G,2 z4 |
[V:4]E,2 z4 |
[V:1]cB AG FE |
[V:2]z4 _C2- |
[V:3]z4 A,2- |
[V:4]z6 |
[V:1]D2 D2 BD |
[V:2]C2 B,2 A,2 |
[V:3]A,2 G,2 F,2 |
[V:4]B,,6 |
[V:1]E2 E2 BD |
[V:2]G,2 G,2 A,2 |
[V:3]G,2 B,2 F,2 |
[V:4]E,2 z2 B,,2 |
[V:1]E2 z4 |
[V:2]G,2 z4 |
[V:3]G,2 z4 |
[V:4]E,,2 z2 E,2 |
[V:1]z6 |
[V:2]z6 |
[V:3]z6 |
[V:4]B,,4 A,,G,,/A,,/ |
[V:1]z6 |
[V:2]z4 E2 |
[V:3]z4 E,2 |
[V:4]G,,2 B,,2 E,,2 |
[V:1]z6 |
[V:2]_F2 E2 G2 |
[V:3]_F,2 E,2 G,2 |
[V:4]_D,,6 |
[V:1]z6 |
[V:2]A2 c2 F2 |
[V:3]A,2 C2 F,2 |
[V:4]C,,2 z2 F,,2 |
[V:1]z6 |
[V:2]_G2 F2 =A2 |
[V:3]_G,2 F,2 =A,2 |
[V:4]E,,6 |
[V:1]z4 b2 |
[V:2]B2 d2 B2 |
[V:3]B,2 D2 z2 |
[V:4]D,,2 z4 |
[V:1]f4 ed/e/ |
[V:2]d4 cB/c/ |
[V:3]B,D EF G=A |
[V:4]z6 |
[V:1]d2 f2 B2 |
[V:2]B2 d2 D2 |
[V:3]B2 z2 B,2 |
[V:4]z6 |
[V:1]A6 |
[V:2]E2 D2 F2 |
[V:3]_C2 B,2 D2 |
[V:4]z4 B,,=A,,/B,,/ |
[V:1]G2 e2 dc |
[V:2]G4 FE |
[V:3]E2 B,2 G2 |
[V:4]E,,6 |
[V:1]B4 c2 |
[V:2]D4 E2 |
[V:3]F4 =A,2 |
[V:4]F,,6 |
[V:1]B2 z2 b2 |
[V:2]DF DF DF |
[V:3]B,D B,D B,D |
[V:4]B,,2 z4 |
[V:1]f2 z2 d'2 |
[V:2]DF DF DF |
[V:3]B,D B,D B,D |
[V:4]B,,2 z4 |
[V:1]b2 z2 f'2 |
[V:2]DF DF DF |
[V:3]FD B,D B,D |
[V:4]B,,2 z4 |
[V:1]d'2 b'2 b'2 |
[V:2]BF DF DF |
[V:3]B,D B,D B,D |
[V:4]B,,2 B,,2 B,,2 |
[V:1]b'2 z2 B2 |
[V:2]D2 z4 |
[V:3]B,2 z4 |
[V:4]B,,2 z4 |
[V:1]F4 ED/E/ |
[V:2]D4 =A,2 |
[V:3]F,4 _G,2 |
[V:4]B,,6- |
[V:1]D2 F2 ED/E/ |
[V:2]B,4 =A,2 |
[V:3]F,4 _G,2 |
[V:4]B,,6- |
[V:1]D2 F2 ED/E/ |
[V:2]B,6 |
[V:3]F,4 G,2 |
[V:4]B,,6- |
[V:1]F2 A2 GF/G/ |
[V:2]C4 _D2 |
[V:3]A,4 =E,2 |
[V:4]B,,6- |
[V:1]A2 cB AG |
[V:2]C2 D2 E2 |
[V:3]F,4 E,2 |
[V:4]B,,6- |
[V:1]G2 F2 z2 |
[V:2]E2 D2 e2 |
[V:3]B,4 z2 |
[V:4]B,,2 B,2 z2 |
[V:1]z6 |
[V:2]B4 AG/A/ |
[V:3]G4 FE/F/ |
[V:4]E,,G,, A,,B,, C,D, |
[V:1]z4 e'2 |
[V:2]G2 B2 z2 |
[V:3]E2 G2 z2 |
[V:4]E,2 z4 |
[V:1]b4 ag/a/ |
[V:2]g4 fe/f/ |
[V:3]EG AB cd |
[V:4]z6 |
[V:1]g2 b2 e2 |
[V:2]e2 g2 G2 |
[V:3]e2 z2 E2 |
[V:4]z6 |
[V:1]_d6 |
[V:2]A2 G2 B2- |
[V:3]_F2 E2 G,2 |
[V:4]z4 E,D,/E,/ |
[V:1]c2 e2 c2 |
[V:2]B2 A2 A2- |
[V:3]A,2 C2 E2 |
[V:4]A,,2 z2 A,,G,,/A,,/ |
[V:1]B2 e2 B2 |
[V:2]A2 G2 G2 |
[V:3]E4 z2 |
[V:4]E,2 z2 E,D,/E,/ |
[V:1]A4 G2 |
[V:2]F4 E2 |
[V:3]z2 D2 E2 |
[V:4]B,2 =B,2 C2 |
[V:1]F=E/F/ A2 D2 |
[V:2]C4 B,A, |
[V:3]A,4 B,2 |
[V:4]A,4 B,2 |
[V:1]E2 z2 e2 |
[V:2]G,B, G,B, G,B, |
[V:3]E,G, E,G, E,G, |
[V:4]E,2 z4 |
[V:1]B2 z2 g2 |
[V:2]G,B, G,B, G,B, |
[V:3]E,G, E,G, E,G, |
[V:4]E,2 z4 |
[V:1]e2 z2 b2 |
[V:2]G,B, G,B, G,B, |
[V:3]E,G, E,G, E,G, |
[V:4]E,2 z4 |
[V:1]e'2 b2 g'2 |
[V:2]G,B, G,B, G,B, |
[V:3]E,G, E,G, E,G, |
[V:4]E,,2 E,,2 E,,2 |
[V:1]e'2 z4 |]
[V:2]G,2 z4 |]
[V:3]E,2 z4 |]
[V:4]E,,2 z4 |]

